!!!!SEGMENT: pl-kk--kk-i-382--045-003_lobmann-j--msza-na-3-glosy-benedictus.krn
!!!cenid: 18xx:1546
!!!COM: Löbmann, J.
!!!COM-rismID: pe30015898
!!!CDT: ~1800-~1899
!!!CNT:
!!!OPR: Msza na 3 głosy
!!!OTL: Benedictus
!!!OMV: 003
!!!PDT:
!!!AGN: Sacred; Mass
!!!SMS-siglum: PL-Kk
!!!SMS-shelfmark: Kk.I.382
!!!SMS-shelfwork: 031-003 M
!!!SMS-variant:
!!!SMS-altvar:
!!!NIFC-rismSourceID: 1001140396
!!!NIFC-islandoraID: pl-kk:6162
!!!URL-pdf-islandora: https://repozytorium.nifc.pl/islandora/object/pl-kk%3A6162/datastream/PDF/view
!!!URL-scan: https://polish.musicsources.pl/pl/lokalizacje/galeria/rekopisy/5994 @EN{Scan on Polish Music Herritage in Open Access Website} @PL{Skany w portalu Dziedzictwo Muzyki Polskiej w otwartym dostępie}
!!!ONB-nifc: UWAGA: obsada: S (T 1), T 2, B 2; S (T 1): skan 0037-0038,T 2: skan 0108, B 2: skan 0256-0257. Osobne części Mszy: Kyrie, Sanctus, Benedictus, Agnus Dei
!!!AIN: 1 bass 2 tenor
!!!key:
**kern	**text	**kern	**text	**kern	**text
*part3	*part3	*part2	*part2	*part1	*part1
*staff3	*staff3	*staff2	*staff2	*staff1	*staff1
*Ibass	*	*Itenor	*	*Itenor	*
*I"Basso II	*	*I"Tenore II	*	*I"Soprano vel Tenore I.	*
*I'B 2	*	*I'T 2	*	*I'S (T 1)	*
*clefF4	*	*clefG2	*	*clefG2	*
*k[f#]	*	*k[f#]	*	*k[f#]	*
*G:	*	*G:	*	*G:	*
*M3/2	*	*M3/2	*	*M3/2	*
=1	=1	=1	=1	=1	=1
!LO:TX:Bi:a:t=Benedictus.	!	!LO:TX:Bi:a:t=Benedictus.	!	!LO:TX:Bi:a:t=Benedictus.	!
!LO:TX:t=P:problem=napis "Benedictus." na pięciolinii przed kluczem	!	!LO:TX:t=P:problem=napis "Benedictus." na pięciolinii przed kluczem	!	!LO:TX:t=P:problem=napis "Benedictus." na pięciolinii przed kluczem	!
!LO:TX:t=P:problem=all\right&colon; global	!	!LO:TX:t=P:problem=all\right&colon; global	!	!LO:TX:i:a:t=Moderato.	!
!LO:TX:i:a:t=Moderato.	!	!LO:TX:i:a:t=Moderato	!	!LO:TX:t=P:problem=all\right&colon; global	!
1G	Be-	1b	Be-	1dd	Be-
*2\right	*	*2\right	*	*2\right	*
2G\	-ne-	2g/	-ne-	2b\	-ne-
=2	=2	=2	=2	=2	=2
2G\	-dic-	2a/	-dic-	2cc\	-dic-
2G\	-tus	2b\	-tus	2dd\	-tus
2G\	qui	2b\	qui	2ee\	qui
=3	=3	=3	=3	=3	=3
2F#\	ve-	(>2a/	ve-	(<1dd	ve-
2E\	.	2g/	.	.	.
2D\	.	2f#/)	.	2cc\)	.
!LO:LB:g=original	!	!LO:LB:g=original	!	!LO:LB:g=original	!
=4	=4	=4	=4	=4	=4
2G\	.	1g	-nit	1b	-nit
2E\	-nit	.	.	.	.
2D\	in	2g/	in	2b\	in
=5	=5	=5	=5	=5	=5
2C/	no-	2g/	no-	2a/	no-
2AA/	-mi-	2g/	-mi-	2cc\	-mi-
2BB/	-ne	2g/	-ne	2dd\	-ne
=6	=6	=6	=6	=6	=6
1C	Do-	2g/	Do-	1ee	Do-
.	.	2a/	.	.	.
2C#X/	-mi-	2g/	-mi-	2a/	-mi-
=7	=7	=7	=7	=7	=7
1D	-ni	2f#/	-ni	1a	-ni
.	.	2r	.	.	.
2r	.	2r	.	2r	.
=8	=8	=8	=8	=8	=8
!LO:TX:a:t=1	!	!LO:TX:a:t=1	!	!LO:TX:a:t=1	!
!LO:TX:a:t=P:problem=belka jako pauza	!	!LO:TX:a:t=P:problem=belka jako pauza	!	!LO:TX:a:t=P:problem=belka jako pauza	!
1.r	.	1.r	.	1.r	.
!	!	!	!	!LO:LB:g=original	!
=9	=9	=9	=9	=9	=9
1GG	Be-	1b	Be-	1dd	Be-
2G\	-ne-	2g/	-ne-	2b\	-ne-
!	!	!LO:LB:g=original	!	!	!
=10	=10	=10	=10	=10	=10
2G\	-dic-	2a/	-dic-	2cc\	-dic-
2G\	-tus	2b\	-tus	2dd\	-tus
2G\	qui	2b\	qui	2ee\	qui
!LO:LB:g=original	!	!	!	!	!
=11	=11	=11	=11	=11	=11
2B\	ve-	2dd\	ve-	2dd\	ve-
2A\	.	1cc	.	2ee\	.
!	!	!	!	!LO:TX:t=P:problem=skreślone trzy takty	!
2D\	.	.	.	2ff#\	.
!	!	!	!	!LO:PB:g=original	!
=12	=12	=12	=12	=12	=12
1E	-nit	1b	-nit	1gg	-nit
2G\	in	2b\	in	2b\	in
=13	=13	=13	=13	=13	=13
2F#\	no-	2a#X/	no-	2cc#X\	no-
2B\	-mi-	2b\	-mi-	2dd\	-mi-
2G\	-ne	(<4b\	-ne	2ee\	-ne
.	.	4dd\)	.	.	.
=14	=14	=14	=14	=14	=14
1A	Do-	2dd\	Do-	2.ee\	Do-
.	.	(>4cc#X\	.	.	.
.	.	4b\	.	4dd\	.
2AA/	-mi-	4a\)	.	2cc#X\	-mi-
.	.	4g/	-mi-	.	.
!	!	!LO:PB:g=original	!	!	!
=15	=15	=15	=15	=15	=15
1D	-ni	2f#/	-ni	1dd	-ni
.	.	2a/	Be-	.	.
2r	.	2a/	-ne-	2r	.
=16	=16	=16	=16	=16	=16
!LO:TX:a:t=3	!	!LO:TX:a:i:t=Solo	!	!LO:TX:a:t=1	!
!LO:TX:a:t=P:problem=belka jako pauza wielotaktowa	!	!	!	!LO:TX:a:t=P:problem=belka jako pauza	!
!	!	!LO:TX:a:t=P:problem=napis "Solo" dopisany ołówkiem	!	!	!
1.r	.	2b/	-dic-	1.r	.
.	.	2a/	-tus	.	.
.	.	2g/	qui	.	.
=17	=17	=17	=17	=17	=17
1.r	.	2g/	ve-	2r	.
.	.	2f#/	-nit	2dd\	Be-
.	.	2b\	qui	2dd\	-ne-
!	!	!	!	!LO:LB:g=original	!
=18	=18	=18	=18	=18	=18
1.r	.	2g/	ve-	2ee\	-dic-
.	.	2f#/	-nit	2dd\	-tus
.	.	2e/	in	2cc#X\	qui
!LO:PB:g=original	!	!	!	!	!
=19	=19	=19	=19	=19	=19
2r	.	1.f#	no-	2dd\	ve-
2D\	Be-	.	.	2a/	-nit
2D\	-ne-	.	.	2b/	in
=20	=20	=20	=20	=20	=20
2E\	-dic-	1.g	.	2cc#X\	no-
2D\	-tus	.	.	2dd\	-mi-
2C#X/	qui	.	.	2ee\	-ne
!	!	!LO:LB:g=original	!	!	!
=21	=21	=21	=21	=21	=21
2D\	ve-	2f#/	.	2ee\	Do-
2BB/	-nit	2f#/	-mi-	2dd\	.
2GG/	in	2g/	-ne	2b\	-mi-
=22	=22	=22	=22	=22	=22
2D\	no-	2g/	Do-	1a	-ni
2D\	-mi-	2f#/	.	.	.
2E\	-ne	2g/	.	2r	.
=23	=23	=23	=23	=23	=23
!	!	!	!	!LO:TX:a:t=1	!
!	!	!	!	!LO:TX:a:t=P:problem=belka jako pauza	!
2F#\	Do-	2a/	.	1.r	.
2G\	.	2b\	.	.	.
2A\	-mi-	2ccn\	-mi-	.	.
!	!	!	!	!LO:LB:g=original	!
=24	=24	=24	=24	=24	=24
2G\	-ni	2b\	-ni	1dd	Be-
2G\	Be-	2b\	Be-	.	.
2GG/	-ne-	2g/	-ne-	2b\	-ne-
!LO:LB:g=original	!	!	!	!	!
=25	=25	=25	=25	=25	=25
2AA/	-dic-	2g/	-dic-	2cc\	-dic-
2BB/	-tus	2g/	-tus	2dd\	-tus
2C/	qui	2g/	qui	2ee\	qui
!	!	!LO:LB:g=original	!	!	!
=26	=26	=26	=26	=26	=26
1D	ve-	2f#/	ve-	2dd\	ve-
.	.	2g/	.	2ee\	.
2C/	.	2a/	.	2ff#\	.
=27	=27	=27	=27	=27	=27
2BB/	.	2g/	.	1gg	-nit
2C/	-nit	2a/	-nit	.	.
2D/	in	2b\	in	2g/	in
=28	=28	=28	=28	=28	=28
2E\	no-	2cc\	no-	2gg\	no-
2C/	-mi-	2cc\	-mi-	2ee\	-mi-
2C/	-ne	2a/	-ne	2cc\	-ne
=29	=29	=29	=29	=29	=29
1D	Do-	2g/	Do-	1b	Do-
.	.	2e/	.	.	.
2D\	-mi-	2f#/	-mi-	2a/	-mi-
!	!	!	!	!LO:LB:g=original	!
=30	=30	=30	=30	=30	=30
2D#X\	-ni	2f#/	-ni	1b	-ni
2E\	.	2g/	.	.	.
2F#\	in	2a/	in	2b/	in
!LO:LB:g=original	!	!LO:LB:g=original	!	!	!
=31	=31	=31	=31	=31	=31
2E\	no-	2g/	no-	2cc\	no-
2BB/	-mi-	2g/	-mi-	2dd\	-mi-
2C/	-ne	2g/	-ne	2ee\	-ne
=32	=32	=32	=32	=32	=32
1D	Do-	2g/	Do-	1dd	Do-
.	.	2f#/	.	.	.
2F#\	-mi-	(<4a\	.	2dd\	-mi-
.	.	4cc\)	-mi-	.	.
=33	=33	=33	=33	=33	=33
1G	-ni	1b	-ni	1dd	-ni
2r	.	2g/	Ho-	2r	.
=34	=34	=34	=34	=34	=34
!LO:TX:a:t=1	!	!	!	!	!
!LO:TX:a:t=P:problem=belka jako pauza	!	!	!	!	!
1.r	.	(>2b\	-san-	1r	.
.	.	2a\)	.	.	.
.	.	2g/	-na	2b\	Ho-
=35	=35	=35	=35	=35	=35
1r	.	(>2cc\	in	(>2ee\	-san-
.	.	2b\)	.	2dd\)	.
2D\	Ho-	2a/	ex-	2cc\	-na
!	!	!LO:LB:g=original	!	!LO:LB:g=original	!
=36	=36	=36	=36	=36	=36
2G\	-san-	2b\	-cel-	(>2b\	in
2F#\	-na	2a/	.	2dd\)	.
2E\	.	2g/	.	2dd\	ex-
!LO:LB:g=original	!	!	!	!	!
=37	=37	=37	=37	=37	=37
2D\	.	2f#/	-sis	2dd\	-cel-
2D\	in	2g/	in	2ee\	.
2D\	ex-	2a/	ex-	2ff#\	.
=38	=38	=38	=38	=38	=38
2E\	-cel-	2g/	-cel-	2gg\	-sis
2E\	-sis	2g/	-sis	2g/	in
4E\	in	4g/	in	2a/	ex-
4E\	ex-	4g/	ex-	.	.
=39	=39	=39	=39	=39	=39
[>1.D	-cel-	1.g	-cel-	1.b	-cel-
=40	=40	=40	=40	=40	=40
1.D]	.	1g	.	1.a	.
.	.	2f#/	.	.	.
=41	=41	=41	=41	=41	=41
!	!	!LO:N:vis=1	!	!LO:N:vis=1	!
1.GG;>	-sis.	1.g;>	-sis.	1.g;>	-sis.
==	==	==	==	==	==
*-	*-	*-	*-	*-	*-
!!!system-decoration: [(s1,s2,s3)]
!!!RDF**kern: > = above
!!!RDF**kern: < = below
!!!EED: Mateusz Mrugas
!!!EEV: 2021-02-10
!!!ENC: Andrzej Gręziak
!!!END: 2021-01-30
